Numix-GalliumOS/24/categories/applications-monodevelopment.svg

<?xml version="1.0" encoding="UTF-8" standalone="no"?>
<svg
   xmlns:dc="http://purl.org/dc/elements/1.1/"
   xmlns:cc="http://creativecommons.org/ns#"
   xmlns:rdf="http://www.w3.org/1999/02/22-rdf-syntax-ns#"
   xmlns:svg="http://www.w3.org/2000/svg"
   xmlns="http://www.w3.org/2000/svg"
   xmlns:sodipodi="http://sodipodi.sourceforge.net/DTD/sodipodi-0.dtd"
   xmlns:inkscape="http://www.inkscape.org/namespaces/inkscape"
   width="24"
   height="24"
   viewBox="0 0 24 24"
   id="svg2"
   version="1.1"
   inkscape:version="0.91 r"
   sodipodi:docname="applications-monodevelopment.svg">
  <metadata
     id="metadata16">
    <rdf:RDF>
      <cc:Work
         rdf:about="">
        <dc:format>image/svg+xml</dc:format>
        <dc:type
           rdf:resource="http://purl.org/dc/dcmitype/StillImage" />
        <dc:title />
      </cc:Work>
    </rdf:RDF>
  </metadata>
  <defs
     id="defs14" />
  <sodipodi:namedview
     pagecolor="#ffffff"
     bordercolor="#666666"
     borderopacity="1"
     objecttolerance="10"
     gridtolerance="10"
     guidetolerance="10"
     inkscape:pageopacity="0"
     inkscape:pageshadow="2"
     inkscape:window-width="1680"
     inkscape:window-height="1026"
     id="namedview12"
     showgrid="false"
     inkscape:zoom="10.727273"
     inkscape:cx="-15.055085"
     inkscape:cy="11"
     inkscape:window-x="0"
     inkscape:window-y="24"
     inkscape:window-maximized="1"
     inkscape:current-layer="svg2" />
  <path
     style="fill:none;stroke:#6996af;stroke-width:0.68032002"
     d="M 17.925636,5.054026 C 16.859277,5.4915067 13.437553,6.9211312 13.351619,6.9562859 12.39463,6.1750704 11.152497,5.5657222 9.8595855,5.4993189 6.7308172,5.3001089 3.855944,8.0812363 3.8481319,11.163132 c -0.1406188,2.773315 1.1249504,5.339608 2.2694311,7.792625 0.956989,-0.39842 4.437304,-1.851481 4.527144,-1.886636 0.937459,0.785122 2.140531,1.363222 3.398288,1.453061 3.077989,0.261708 5.937238,-2.402237 6.093481,-5.409917 0.226553,-2.812376 -1.074171,-5.4177305 -2.163967,-7.9371506 -0.01562,-0.039061 -0.03125,-0.078122 -0.04687,-0.1210884 z"
     id="path4"
     inkscape:connector-curvature="0" />
  <g
     style="fill:#6996af"
     id="g6"
     transform="translate(1.1138774,1.1206057)">
    <path
       d="M 5.714844,16.039062 C 5.039062,14.402344 4.144531,12.964844 4.125,10.292969 4.105469,7.53125 6.472656,5.746094 8.339844,5.746094 c 2.265625,0 4.261718,1.914062 4.363281,3.496094 0.09766,1.429687 -0.414063,3.507812 -3.039063,3.492187 -1.253906,-0.0039 -2.554687,-1.09375 -2.5625,-2.71875 -0.00781,-1.75 2.1875,-1.921875 2.738282,-1.476563 0.214844,0.171876 0.207031,0.519532 0.019531,0.457032 -1.183594,-0.386719 -1.914063,0.371094 -1.855469,1.125 0.070313,1.023437 0.679688,1.632812 1.765625,1.683594 1.570313,0.07422 2.011719,-1.453126 1.972657,-2.070313 C 11.691406,8.980469 11.03125,7.429688 8.992188,7.148438 8.023438,7.015625 7.226562,7.300781 6.640625,7.867188 6.058594,8.433594 5.730469,9.019531 5.683594,9.980469 5.632812,10.976562 5.851562,11.558594 6.441406,12.863281 6.65625,13.328125 7.25,14.265625 7.707031,15.207031 Z"
       id="path8"
       inkscape:connector-curvature="0" />
    <path
       d="m 16.054688,5.746094 c 0.675781,1.636718 1.570312,3.078125 1.589843,5.746094 0.02344,2.761718 -2.347656,4.546874 -4.214843,4.546874 -2.265626,0 -4.257813,-1.910156 -4.363282,-3.496093 -0.09375,-1.429688 0.414063,-3.507813 3.039063,-3.492188 1.253906,0.00781 2.558593,1.097657 2.5625,2.722657 0.0078,1.75 -2.183594,1.917968 -2.738281,1.472656 -0.214844,-0.171875 -0.207032,-0.515625 -0.01563,-0.453125 1.179688,0.382812 1.910157,-0.375 1.855469,-1.125 C 13.695312,10.640625 13.085938,10.03125 12,9.980469 10.429688,9.90625 9.992188,11.433594 10.03125,12.054688 c 0.04687,0.75 0.707031,2.300781 2.746094,2.582031 0.96875,0.136719 1.765625,-0.152344 2.351562,-0.71875 0.582032,-0.566407 0.910156,-1.152344 0.960938,-2.113281 C 16.136719,10.8125 15.921875,10.230469 15.328125,8.925781 15.113281,8.460938 14.523438,7.523438 14.0625,6.578125 Z"
       id="path10"
       inkscape:connector-curvature="0" />
  </g>
</svg>

<svg xmlns="http://www.w3.org/2000/svg" viewBox="0 0 24 24">
 <path d="m 17.926 5.05 c -1.066 0.437 -4.488 1.867 -4.574 1.902 -0.957 -0.781 -2.199 -1.391 -3.492 -1.457 -3.129 -0.199 -6 2.582 -6.01 5.664 c -0.141 2.773 1.125 5.34 2.269 7.793 0.957 -0.398 4.437 -1.851 4.527 -1.887 0.937 0.785 2.141 1.363 3.398 1.453 3.078 0.262 5.937 -2.402 6.093 -5.41 0.227 -2.812 -1.074 -5.418 -2.164 -7.937 -0.016 -0.039 -0.031 -0.078 -0.047 -0.121 z" style="fill:none;stroke:#6996af;stroke-width:0.68"/>
 <g transform="translate(1.1138774,1.1206057)" style="fill:#6996af">
  <path d="m 5.715 16.04 c -0.676 -1.637 -1.57 -3.074 -1.59 -5.746 -0.02 -2.762 2.348 -4.547 4.215 -4.547 c 2.266 0 4.262 1.914 4.363 3.496 0.098 1.43 -0.414 3.508 -3.039 3.492 -1.254 -0.004 -2.555 -1.094 -2.563 -2.719 -0.008 -1.75 2.188 -1.922 2.738 -1.477 0.215 0.172 0.207 0.52 0.02 0.457 -1.184 -0.387 -1.914 0.371 -1.855 1.125 0.07 1.023 0.68 1.633 1.766 1.684 1.57 0.074 2.01 -1.453 1.973 -2.07 c -0.051 -0.754 -0.711 -2.305 -2.75 -2.586 -0.969 -0.133 -1.766 0.152 -2.352 0.719 -0.582 0.566 -0.91 1.152 -0.957 2.113 -0.051 0.996 0.168 1.578 0.758 2.883 0.215 0.465 0.809 1.402 1.266 2.344"/>
  <path d="m 16.05 5.746 c 0.676 1.637 1.57 3.078 1.59 5.746 0.023 2.762 -2.348 4.547 -4.215 4.547 -2.266 0 -4.258 -1.91 -4.363 -3.496 -0.094 -1.43 0.414 -3.508 3.039 -3.492 1.254 0.008 2.559 1.098 2.563 2.723 0.008 1.75 -2.184 1.918 -2.738 1.473 -0.215 -0.172 -0.207 -0.516 -0.016 -0.453 1.18 0.383 1.91 -0.375 1.855 -1.125 c -0.074 -1.027 -0.684 -1.637 -1.77 -1.688 -1.57 -0.074 -2.01 1.453 -1.969 2.074 c 0.047 0.75 0.707 2.301 2.746 2.582 0.969 0.137 1.766 -0.152 2.352 -0.719 0.582 -0.566 0.91 -1.152 0.961 -2.113 c 0.047 -0.992 -0.168 -1.574 -0.762 -2.879 -0.215 -0.465 -0.805 -1.402 -1.266 -2.348"/>
 </g>
</svg>
